lib/healthicons/icons/solid/devices/microscope.svg

<svg fill="none" height="48" viewBox="0 0 48 48" width="48" xmlns="http://www.w3.org/2000/svg"><path d="m21.2628 7.45335-1.4903.84798-1.2189-2.18756-2.63 1.44397 1.2412 2.22744-1.5083.85822 1.0613 1.8382c-.7517.9331-.8928 2.2677-.2528 3.3682l.5955 1.0239c-2.7533 1.585-4.8739 3.4782-6.0592 5.8317-1.14278 2.2691-1.35911 4.851-.5977 7.7784-2.08659 1.8327-3.4036 4.5205-3.4036 7.5159 0 1.4223.2969 2.7751.83209 4h32.16791c.5523 0 1-.4477 1-1 0-.5522-.4477-1-1-1h-13.2c.1311-.6462.2-1.315.2-2 0-1.5365-.3465-2.9921-.9657-4.2928l12.0421-6.7862-.9928-1.7362-12.08 6.8075.9927 1.7361-6.5141 3.671-.9927-1.7362 6.508-3.6675c-1.8247-2.4264-4.7278-3.9957-7.9975-3.9957-1.7522 0-3.3991.4507-4.8312 1.2424-.4414-2.2112-.1791-4.0529.6188-5.6371.948-1.8823 2.7154-3.5283 5.2783-5.0024l2.9218 5.0241c.8329 1.4322 2.6734 1.9254 4.1109 1.1015l.6672-.3824.6091 1.1773 2.6739-1.3624-.6771-1.3086.8485-.4863c1.4374-.8239 1.9275-2.6529 1.0946-4.0852l-4.5227-7.7769c-.7275-1.25096-2.2237-1.78552-3.5486-1.35178z" fill="#333"/></svg>

<svg width="48" height="48" viewBox="0 0 48 48" fill="none" xmlns="http://www.w3.org/2000/svg">
<path d="M21.2628 7.45335L19.7725 8.30133L18.5536 6.11377L15.9236 7.55774L17.1648 9.78518L15.6565 10.6434L16.7178 12.4816C15.9661 13.4147 15.825 14.7493 16.465 15.8498L17.0605 16.8737C14.3072 18.4587 12.1866 20.3519 11.0013 22.7054C9.85852 24.9745 9.64219 27.5564 10.4036 30.4838C8.31701 32.3165 7 35.0043 7 37.9997C7 39.422 7.2969 40.7748 7.83209 41.9997H40C40.5523 41.9997 41 41.552 41 40.9997C41 40.4475 40.5523 39.9997 40 39.9997H26.8C26.9311 39.3535 27 38.6847 27 37.9997C27 36.4632 26.6535 35.0076 26.0343 33.7069L38.0764 26.9207L37.0836 25.1845L25.0036 31.992L25.9963 33.7281L19.4822 37.3991L18.4895 35.6629L24.9975 31.9954C23.1728 29.569 20.2697 27.9997 17 27.9997C15.2478 27.9997 13.6009 28.4504 12.1688 29.2421C11.7274 27.0309 11.9897 25.1892 12.7876 23.605C13.7356 21.7227 15.503 20.0767 18.0659 18.6026L20.9877 23.6267C21.8206 25.0589 23.6611 25.5521 25.0986 24.7282L25.7658 24.3458L26.3749 25.5231L29.0488 24.1607L28.3717 22.8521L29.2202 22.3658C30.6576 21.5419 31.1477 19.7129 30.3148 18.2806L25.7921 10.5037C25.0646 9.25274 23.5684 8.71818 22.2435 9.15192L21.2628 7.45335Z" fill="#333333"/>
</svg>
